!!! OTL: Berkowitz576
!!! Chapter: 1
!!! Section: V
!!! Page: 156
!!! Mode: 
!!! Encoder: CD
**kern
*staff1
=1-
*clefF4
*k[]
*C:
*M4/4
4D-\
4E-\
8r
8Dn\L
8En\
8F\J
=2
4c\
4G\
8r
8F\L
8B-\
8A-\J
=3
4.D-\
8Dn\
8E\L
8E-\
8B-\
8A\J
=4
2E\
2r
=5
!!linebreak:original
4B\
4F#\
8r
8A-\L
8E-\
8D-\J
=6
8G-\L
8F\J
4C/
8BB-/L
8E-/J
4A-\
=7
8F#\L
8BB\J
4C/
8F#\L
8B-\
8A\
8E\J
=8
8A\L
8D\
8C\
8G\J
2F#\
==
*-
